X: 1649
T: Kiama 2
B: australian traditional tunes wiki
M:6/8
L:1/8
R: Jig
Q: 3/8=100
K:D
V:1 
F|"D"A,2A,D2E|F3-F2E|DFAd2c|"G"B3-B2C|"A7"A,2CE2F|GAGc2B|ABA AGE|"D"F3-F2F|
"D"A,2A,D2E|F3-F2E|DFAd2c|"G"B3-B2C|"A7"A,2CE2F|GAGc2B|AcA AFE|"D"D3-D2B||
"D"AFD A,DG|B2A3B|AFD A,DF|"A7"F2E3G|GEC A,CE|GECA,2A|ABA BAG|"D"F3-F2B|
"D"AFD A,DG|B2A3B|AFD A,DF|"A7"F2E3G|GEC A,CE|GECA,2A|ABA GFE|"D"D3-D2||
% abcbook-tune_id 6342d53ad04cacf80887a207


% abcbook-boost 0
% abcbook-tablature 
% abcbook-transpose 
% abcbook-lastupdated 1665324376007
% abcbook-soundfonts 
% abcbook-repeats 1
% NFF Book 2020

